src/icons/IconRUS/IconRUS_size_m.svg

<svg width="24" height="24" viewBox="0 0 24 24" fill="none" xmlns="http://www.w3.org/2000/svg">
  <path
    d="M13.72 8.67633C13.7977 8.33097 13.8916 7.97398 14.0038 7.60973C14.5813 5.73369 15.6061 3.78444 17.2399 2.3258C18.2331 2.86491 19.134 3.55252 19.9128 4.35885C17.88 5.0539 16.1583 6.25457 14.8241 7.52037C14.4262 7.89791 14.057 8.2867 13.72 8.67633Z"
    fill="black"
  />
  <path
    d="M9.9045 16.6721C9.81475 16.7595 9.72342 16.8463 9.63055 16.9326C8.28057 18.1867 6.54227 19.3712 4.49719 20.0442C5.30899 20.8017 6.23557 21.4377 7.24799 21.9234C8.46457 20.5584 9.25822 18.9071 9.73099 17.3117C9.79503 17.0956 9.85273 16.8821 9.9045 16.6721Z"
    fill="black"
  />
  <path
    d="M9.24389 22.6519C10.1247 22.8791 11.0482 23 12 23C12.1462 23 12.2917 22.9971 12.4365 22.9915C12.9113 21.0824 12.782 19.1118 12.3665 17.3804C12.2709 16.9817 12.1613 16.601 12.0428 16.2416C11.9437 16.7741 11.8132 17.3244 11.6486 17.8799C11.18 19.461 10.4155 21.1525 9.24389 22.6519Z"
    fill="black"
  />
  <path
    d="M17.5764 21.4838C16.6442 22.0331 15.6239 22.4489 14.5419 22.7048C14.908 20.6637 14.7271 18.6464 14.3113 16.9137C14.1833 16.3804 14.0312 15.8663 13.8623 15.3797C14.1225 15.6196 14.3847 15.8794 14.644 16.1586C15.9551 17.57 17.1119 19.3898 17.5764 21.4838Z"
    fill="black"
  />
  <path
    d="M19.3116 20.2185C20.2055 19.4227 20.9687 18.4832 21.5649 17.4363C20.0848 15.6415 18.0241 14.5343 16.0448 13.925C15.6529 13.8044 15.2695 13.7048 14.8998 13.6239C15.3077 13.9804 15.715 14.3729 16.1094 14.7974C17.4218 16.2103 18.6582 18.0485 19.3116 20.2185Z"
    fill="black"
  />
  <path
    d="M23 12C23 13.1999 22.8079 14.3549 22.4527 15.436C20.7406 13.6905 18.6031 12.6199 16.6332 12.0135C16.361 11.9297 16.0899 11.8542 15.8215 11.7866C16.3208 11.6007 16.8702 11.4292 17.4587 11.288C19.1603 10.8797 21.0928 10.7478 22.9709 11.194C22.9902 11.4602 23 11.7289 23 12Z"
    fill="black"
  />
  <path
    d="M15.3764 9.8208C15.8871 9.64046 16.4288 9.47837 16.9921 9.34321C18.6755 8.93926 20.6274 8.757 22.609 9.08272C22.3099 7.99272 21.8474 6.97035 21.2494 6.04362C19.264 6.56229 17.5432 7.69755 16.2006 8.97127C15.9033 9.25341 15.6284 9.53856 15.3764 9.8208Z"
    fill="black"
  />
  <path
    d="M15.2367 1.48392C14.2134 1.16933 13.1265 1 12 1C11.8793 1 11.759 1.00195 11.6392 1.00581C10.8362 3.17689 10.9091 5.50348 11.369 7.51333C11.4605 7.91302 11.566 8.2949 11.6807 8.65549C11.7855 8.124 11.9218 7.57508 12.0923 7.02131C12.6658 5.15826 13.6545 3.14523 15.2367 1.48392Z"
    fill="black"
  />
  <path
    d="M7.03555 13.1375C7.40708 13.0525 7.76322 12.9554 8.10117 12.85C7.59527 12.7529 7.07405 12.6276 6.54818 12.4718C4.78082 11.9481 2.87545 11.0545 1.25468 9.63582C1.08789 10.3974 1 11.1884 1 12C1 12.3516 1.0165 12.6994 1.04877 13.0426C3.0672 13.6564 5.18555 13.5609 7.03555 13.1375Z"
    fill="black"
  />
  <path
    d="M7.11642 10.5542C7.5094 10.6707 7.89376 10.7662 8.2641 10.8432C7.85256 10.4911 7.44129 10.103 7.04259 9.68275C5.77439 8.34604 4.57156 6.62032 3.87711 4.58243C3.08486 5.44953 2.4296 6.44392 1.94557 7.53135C3.40306 9.05773 5.29619 10.0148 7.11642 10.5542Z"
    fill="black"
  />
  <path
    d="M8.49349 8.3062C8.95719 8.79495 9.42905 9.22301 9.8827 9.58801C9.70666 9.07314 9.54933 8.52706 9.41945 7.95949C8.96544 5.97562 8.82169 3.62385 9.44925 1.29726C8.01223 1.63846 6.68438 2.26158 5.52735 3.10496C6.02666 5.15471 7.18726 6.92941 8.49349 8.3062Z"
    fill="black"
  />
  <path
    d="M7.48171 15.0871C8.04639 14.9579 8.58981 14.8015 9.10238 14.6266C8.84754 14.9061 8.56967 15.1883 8.26936 15.4673C6.87888 16.759 5.09202 17.9008 3.03709 18.3785C2.3577 17.4256 1.8265 16.3597 1.47711 15.2145C3.58575 15.6551 5.68466 15.4984 7.48171 15.0871Z"
    fill="black"
  />
</svg>

<svg viewBox="0 0 24 24" xmlns="http://www.w3.org/2000/svg">
  <path
    d="M13.72 8.676c.078-.345.172-.702.284-1.066.577-1.876 1.602-3.826 3.236-5.284a11.04 11.04 0 012.673 2.033c-2.033.695-3.755 1.896-5.089 3.161-.398.378-.767.767-1.104 1.156zM9.905 16.672c-.09.087-.182.174-.274.26-1.35 1.255-3.089 2.44-5.134 3.112a11.021 11.021 0 002.751 1.88c1.217-1.366 2.01-3.017 2.483-4.612.064-.216.122-.43.174-.64zM9.244 22.652a11.022 11.022 0 003.193.34c.474-1.91.345-3.88-.07-5.612-.096-.398-.206-.779-.324-1.138-.1.532-.23 1.082-.394 1.638-.469 1.581-1.233 3.273-2.405 4.772zM17.576 21.484a10.93 10.93 0 01-3.034 1.22c.366-2.04.185-4.058-.23-5.79a16.266 16.266 0 00-.45-1.534c.26.24.523.5.782.779 1.311 1.411 2.468 3.23 2.932 5.325zM19.312 20.218a11.046 11.046 0 002.253-2.782c-1.48-1.794-3.54-2.902-5.52-3.511-.392-.12-.776-.22-1.145-.301.408.356.815.749 1.21 1.173 1.312 1.413 2.548 3.252 3.202 5.421zM23 12c0 1.2-.192 2.355-.547 3.436-1.712-1.745-3.85-2.816-5.82-3.422-.272-.084-.543-.16-.811-.227a14.2 14.2 0 011.637-.499c1.701-.408 3.634-.54 5.512-.094.02.266.029.535.029.806zM15.376 9.82c.511-.18 1.053-.342 1.616-.477 1.683-.404 3.635-.586 5.617-.26-.3-1.09-.762-2.113-1.36-3.04-1.985.52-3.706 1.655-5.048 2.928-.298.282-.573.568-.825.85zM15.237 1.484a10.998 10.998 0 00-3.598-.478c-.803 2.17-.73 4.497-.27 6.507.091.4.197.782.312 1.142.105-.531.24-1.08.411-1.634.574-1.863 1.563-3.876 3.145-5.537zM7.036 13.137c.371-.085.727-.182 1.065-.287a16.286 16.286 0 01-1.553-.378c-1.767-.524-3.673-1.417-5.293-2.836a11.04 11.04 0 00-.206 3.407c2.018.613 4.137.518 5.987.095zM7.116 10.554c.393.117.778.212 1.148.29a16.25 16.25 0 01-1.221-1.161c-1.269-1.337-2.471-3.063-3.166-5.1A11.013 11.013 0 001.946 7.53c1.457 1.527 3.35 2.484 5.17 3.023zM8.493 8.306c.464.489.936.917 1.39 1.282a16.253 16.253 0 01-.464-1.629c-.454-1.983-.597-4.335.03-6.662a10.95 10.95 0 00-3.922 1.808c.5 2.05 1.66 3.824 2.966 5.201zM7.482 15.087c.564-.13 1.108-.285 1.62-.46a14.3 14.3 0 01-.833.84c-1.39 1.292-3.177 2.434-5.232 2.911a10.958 10.958 0 01-1.56-3.164c2.109.441 4.208.284 6.005-.127z"
  />
</svg>
